src/assets/images/TransCreditCard.svg

<?xml version="1.0" encoding="UTF-8" standalone="no"?><!-- Generator: Gravit.io --><svg xmlns="http://www.w3.org/2000/svg" xmlns:xlink="http://www.w3.org/1999/xlink" style="isolation:isolate" viewBox="0 0 400 300" width="400pt" height="300pt"><defs><clipPath id="_clipPath_coA499INVYfdQtf1GkVE9NF4vUiAMiz1"><rect width="400" height="300"/></clipPath></defs><g clip-path="url(#_clipPath_coA499INVYfdQtf1GkVE9NF4vUiAMiz1)"><path d=" M 36.717 165.335 L 185.843 80.469 C 193.262 76.235 202.376 76.281 209.752 80.589 L 363.399 170.084 C 367.498 172.472 370.013 176.863 370 181.606 C 369.987 186.35 367.446 190.726 363.334 193.091 L 219.892 275.446 C 210.004 281.131 197.839 281.131 187.952 275.446 L 36.663 188.407 C 32.531 186.03 29.989 181.622 30 176.855 C 30.011 172.088 32.574 167.692 36.717 165.335 Z " fill="rgb(229,119,10)"/><path d=" M 383.567 175.317 L 278.822 236.316 C 272.688 239.891 262.658 239.898 256.435 236.316 L 80.505 135.572 C 74.274 132.005 74.206 126.214 80.341 122.639 L 185.085 61.677 C 191.227 58.103 201.249 58.095 207.473 61.677 L 383.403 162.422 C 389.634 165.952 389.709 171.743 383.567 175.317 Z " fill="rgb(40,43,78)"/><path d=" M 388.395 168.803 L 283.658 229.764 C 277.516 233.339 267.487 233.346 261.27 229.764 L 85.341 129.02 C 79.109 125.453 79.035 119.662 85.176 116.087 L 189.936 55.118 C 196.078 51.543 206.107 51.536 212.324 55.118 L 388.253 155.862 C 394.462 159.452 394.537 165.228 388.395 168.803 Z " fill="rgb(40,43,78)"/><path d=" M 384.582 171.026 L 279.845 231.988 C 273.703 235.563 263.673 235.57 257.457 231.988 L 81.527 131.243 C 75.296 127.676 75.229 121.885 81.371 118.311 L 186.108 57.349 C 192.249 53.775 202.279 53.767 208.495 57.349 L 384.425 158.094 C 390.679 161.691 390.723 167.452 384.582 171.026 Z " fill="rgb(40,43,78)"/><g opacity="0.58"><linearGradient id="_lgradient_63" x1="0.15176542389232453" y1="0.8430372692059217" x2="1.1073521041975076" y2="0.28449946641055857" gradientTransform="matrix(312.349,0,0,179.983,76.796,54.688)" gradientUnits="userSpaceOnUse"><stop offset="15.90548892353848%" stop-opacity="1" style="stop-color:rgb(0,0,0)"/><stop offset="27.537186715379896%" stop-opacity="1" style="stop-color:rgb(0,0,0)"/><stop offset="100%" stop-opacity="1" style="stop-color:rgb(0,0,0)"/></linearGradient><path d=" M 384.582 171.019 L 279.837 231.988 C 279.056 232.437 278.24 232.824 277.397 233.145 C 271.293 235.51 262.905 235.122 257.442 232.003 L 81.512 131.258 C 75.289 127.699 75.214 121.908 81.348 118.333 L 129.34 90.408 L 186.055 57.372 C 192.19 53.797 202.219 53.79 208.443 57.372 L 384.365 158.116 C 390.679 161.691 390.723 167.452 384.582 171.019 Z " fill="url(#_lgradient_63)"/></g><g opacity="0.58"><linearGradient id="_lgradient_64" x1="0" y1="0.5" x2="0.623372424985693" y2="-0.2819250729881071" gradientTransform="matrix(233.123,0,0,133.11,144.213,62.088)" gradientUnits="userSpaceOnUse"><stop offset="0%" stop-opacity="1" style="stop-color:rgb(0,0,0)"/><stop offset="25%" stop-opacity="1" style="stop-color:rgb(40,43,78)"/><stop offset="100%" stop-opacity="1" style="stop-color:rgb(40,43,78)"/></linearGradient><path d=" M 178.249 62.088 L 377.336 174.601 L 342.038 195.198 L 144.213 81.416 L 178.249 62.088 L 178.249 62.088 Z " fill="url(#_lgradient_64)"/></g><g opacity="0.58"><path d=" M 325.389 205.212 L 277.397 233.145 C 271.293 235.51 262.905 235.122 257.442 232.003 L 81.512 131.258 C 75.289 127.699 75.214 121.908 81.348 118.333 L 129.34 90.408 C 135.437 88.043 143.832 88.431 149.295 91.55 L 325.225 192.287 C 331.448 195.854 331.523 201.645 325.389 205.212 Z " fill="rgb(32,35,63)"/></g><path d=" M 212.264 103.065 L 189.727 116.169 C 186.324 118.154 180.772 118.154 177.309 116.169 L 149.698 100.356 C 146.243 98.378 146.205 95.132 149.608 93.184 L 172.145 80.065 C 175.548 78.088 181.1 78.08 184.563 80.065 L 212.174 95.878 C 215.629 97.878 215.667 101.087 212.264 103.065 Z " fill="rgb(253,181,35)"/><path d=" M 197.704 111.393 L 193.973 113.542 L 182.473 106.945 C 180.524 107.69 178.413 107.906 176.354 107.572 L 175.802 107.468 L 175.369 107.229 C 174.406 106.707 165.854 102.08 163.914 100.654 C 161.854 99.162 162.921 96.923 163.914 95.55 L 154.742 90.326 L 158.474 88.177 L 170.414 95.02 L 169.421 96.02 C 168.362 97.132 167.802 98.498 168.093 98.826 C 169.279 99.699 174.645 102.692 178.339 104.699 C 179.119 104.632 179.866 104.351 180.496 103.886 L 182.324 102.602 L 197.704 111.393 Z " fill="rgb(239,169,43)"/><path d=" M 204.6 107.371 L 208.331 105.222 L 196.809 98.625 C 198.406 97.237 198.301 95.826 197.846 95.087 L 197.66 94.766 L 197.257 94.52 C 196.339 93.968 188.249 89.073 185.772 87.961 C 183.137 86.782 179.264 87.416 176.929 87.961 L 167.757 82.737 L 164.026 84.886 L 175.966 91.729 L 177.705 91.17 C 179.63 90.55 181.988 90.214 182.563 90.378 C 184.055 91.058 189.279 94.11 192.809 96.244 C 192.757 96.505 192.51 96.99 191.421 97.498 L 189.219 98.565 L 204.6 107.371 Z " fill="rgb(239,169,43)"/><path d=" M 201.779 109.177 L 200.995 109.632 L 160.966 86.699 L 161.742 86.244 L 201.779 109.177 L 201.779 109.177 Z " fill="rgb(239,169,43)"/><path d=" M 189.548 116.296 L 188.764 116.744 L 148.735 93.819 L 149.519 93.364 L 189.548 116.296 L 189.548 116.296 Z " fill="rgb(239,169,43)"/><path d=" M 214.003 102.057 L 213.226 102.513 L 173.19 79.58 L 173.973 79.125 L 214.003 102.057 L 214.003 102.057 Z " fill="rgb(239,169,43)"/><text transform="matrix(0.657,0.373,-0.642,0.373,218.935,115.199)" style="font-family:'Roboto';font-weight:700;font-size:17.2px;font-style:normal;font-variant-ligatures:none;fill:#282B4E;stroke:none;">CREDIT CARD</text><path d=" M 186.13 167.355 L 100.228 117.759 C 98.325 116.662 98.564 114.774 100.758 113.468 L 100.758 113.468 C 102.952 112.199 106.281 112.065 108.184 113.162 L 194.085 162.758 C 195.988 163.855 195.749 165.743 193.548 167.041 L 193.548 167.041 C 191.354 168.31 188.033 168.452 186.13 167.355 Z " fill="rgb(40,43,78)"/><path d=" M 314.792 171.392 L 210.085 232.346 C 203.943 235.921 193.913 235.928 187.697 232.346 L 11.76 131.602 C 5.536 128.035 5.461 122.244 11.603 118.669 L 116.34 57.707 C 122.482 54.133 132.511 54.125 138.728 57.707 L 314.658 158.452 C 320.859 162.019 320.934 167.81 314.792 171.392 Z " fill="rgb(40,43,78)"/><path d=" M 315.807 167.094 L 211.07 228.055 C 204.928 231.63 194.898 231.63 188.682 228.055 L 12.752 127.311 C 6.521 123.744 6.446 117.953 12.588 114.378 L 117.318 53.409 C 123.459 49.834 133.489 49.827 139.705 53.409 L 315.635 154.154 C 321.881 157.728 321.948 163.519 315.807 167.094 Z " fill="rgb(40,43,78)"/><g opacity="0.38"><linearGradient id="_lgradient_65" x1="0" y1="0.5" x2="0.9862389504583918" y2="0.3346738599049451" gradientTransform="matrix(312.343,0,0,179.983,8.022,50.755)" gradientUnits="userSpaceOnUse"><stop offset="100%" stop-opacity="1" style="stop-color:rgb(0,0,0)"/><stop offset="100%" stop-opacity="1" style="stop-color:rgb(0,0,0)"/><stop offset="100%" stop-opacity="1" style="stop-color:rgb(0,0,0)"/></linearGradient><path d=" M 315.814 167.086 L 211.07 228.048 C 210.289 228.501 209.473 228.89 208.63 229.212 C 202.525 231.578 194.13 231.189 188.667 228.07 L 12.737 127.326 C 6.514 123.759 6.439 117.975 12.581 114.4 L 60.565 86.476 L 117.318 53.439 C 123.459 49.864 133.482 49.857 139.705 53.439 L 315.635 154.183 C 321.874 157.728 321.948 163.512 315.814 167.086 Z " fill="url(#_lgradient_65)"/></g><g opacity="0.58"><linearGradient id="_lgradient_66" x1="0" y1="0.5" x2="0.9842613245324011" y2="0.32328088663157195" gradientTransform="matrix(253.145,0,0,145.788,8.022,84.95)" gradientUnits="userSpaceOnUse"><stop offset="100%" stop-opacity="0.85" style="stop-color:rgb(40,43,78)"/><stop offset="100%" stop-opacity="1" style="stop-color:rgb(0,0,0)"/><stop offset="100%" stop-opacity="1" style="stop-color:rgb(0,0,0)"/></linearGradient><path d=" M 256.614 201.28 L 208.63 229.212 C 202.525 231.578 194.13 231.189 188.667 228.07 L 12.737 127.326 C 6.514 123.759 6.439 117.975 12.581 114.4 L 60.565 86.476 C 66.669 84.11 75.057 84.498 80.52 87.617 L 256.45 188.362 C 262.673 191.922 262.748 197.712 256.614 201.28 Z " fill="url(#_lgradient_66)"/></g><path d=" M 143.489 99.132 L 120.959 112.251 C 117.556 114.229 112.004 114.236 108.534 112.251 L 80.923 96.438 C 77.468 94.453 77.423 91.214 80.833 89.267 L 103.37 76.155 C 106.781 74.17 112.325 74.17 115.795 76.155 L 143.407 91.968 C 146.854 93.938 146.899 97.154 143.489 99.132 Z " fill="rgb(253,181,35)"/><path d=" M 128.929 107.453 L 125.235 109.61 L 113.721 103.013 C 111.771 103.752 109.661 103.969 107.601 103.639 L 107.042 103.528 L 106.616 103.296 C 105.646 102.774 97.102 98.147 95.161 96.722 C 93.102 95.229 94.161 92.99 95.161 91.617 L 85.997 86.393 L 89.691 84.244 L 101.631 91.08 L 100.669 92.087 C 99.616 93.207 99.057 94.572 99.34 94.901 C 100.527 95.774 105.893 98.766 109.586 100.774 C 110.368 100.704 111.116 100.422 111.751 99.96 L 113.579 98.677 L 128.929 107.453 Z " fill="rgb(239,169,43)"/><path d=" M 135.832 103.438 L 139.526 101.289 L 127.997 94.692 C 129.586 93.296 129.489 91.893 129.034 91.155 L 128.84 90.834 L 128.437 90.587 C 127.526 90.035 119.437 85.14 116.952 84.028 C 114.318 82.849 110.452 83.483 108.109 84.028 L 98.937 78.804 L 95.206 80.953 L 107.146 87.796 L 108.878 87.229 C 110.803 86.617 113.161 86.282 113.743 86.446 C 115.236 87.125 120.459 90.177 123.989 92.311 C 123.937 92.572 123.691 93.058 122.594 93.565 L 120.355 94.632 L 135.832 103.438 Z " fill="rgb(239,169,43)"/><path d=" M 133.004 105.244 L 132.228 105.692 L 92.191 82.767 L 92.975 82.311 L 133.004 105.244 L 133.004 105.244 Z " fill="rgb(239,169,43)"/><path d=" M 120.773 112.356 L 119.997 112.811 L 79.96 89.886 L 80.744 89.431 L 120.773 112.356 L 120.773 112.356 Z " fill="rgb(239,169,43)"/><path d=" M 145.235 98.125 L 144.452 98.58 L 104.422 75.647 L 105.206 75.192 L 145.235 98.125 L 145.235 98.125 Z " fill="rgb(239,169,43)"/><text transform="matrix(0.657,0.373,-0.642,0.373,150.16,111.259)" style="font-family:'Roboto';font-weight:700;font-size:17.2px;font-style:normal;font-variant-ligatures:none;fill:#656995;stroke:none;">CREDIT CARD</text><path d=" M 217.726 205.496 L 45.2 105.886 C 43.297 104.789 43.535 102.901 45.729 101.602 L 45.729 101.602 C 47.923 100.334 51.252 100.199 53.155 101.296 L 225.681 200.906 C 227.584 202.003 227.346 203.891 225.144 205.19 L 225.144 205.19 C 222.95 206.466 219.629 206.593 217.726 205.496 Z " fill="rgb(40,43,78)"/><path d=" M 117.355 163.422 L 31.453 113.826 C 29.551 112.721 29.789 110.804 31.983 109.535 L 31.983 109.535 C 34.185 108.266 37.506 108.132 39.409 109.229 L 125.31 158.825 C 127.213 159.922 126.974 161.81 124.78 163.109 L 124.78 163.109 C 122.579 164.377 119.258 164.519 117.355 163.422 Z " fill="rgb(40,43,78)"/><path d=" M 204.786 213.929 L 142.571 178.019 C 140.668 176.914 140.907 174.996 143.108 173.728 L 143.108 173.728 C 145.302 172.459 148.631 172.325 150.534 173.422 L 212.741 209.339 C 214.644 210.436 214.406 212.324 212.204 213.623 L 212.204 213.623 C 210.01 214.854 206.682 214.996 204.786 213.929 Z " fill="rgb(40,43,78)"/></g></svg>

<?xml version="1.0" encoding="utf-8"?>
<!-- Generator: Adobe Illustrator 24.0.1, SVG Export Plug-In . SVG Version: 6.00 Build 0)  -->
<svg version="1.1" id="Layer_1" xmlns="http://www.w3.org/2000/svg" xmlns:xlink="http://www.w3.org/1999/xlink" x="0px" y="0px"
	 viewBox="0 0 400 300" style="enable-background:new 0 0 400 300;" xml:space="preserve">
<style type="text/css">
	.st0{clip-path:url(#SVGID_2_);}
	.st1{fill:url(#SVGID_3_);}
	.st2{fill:#282B4E;}
	.st3{opacity:0.58;}
	.st4{fill:url(#SVGID_4_);}
	.st5{fill:url(#SVGID_5_);}
	.st6{fill:#20233F;}
	.st7{fill:#FDB523;}
	.st8{fill:#EFA92B;}
	.st9{font-family:'RobotoMonoForPowerline-Bold';}
	.st10{font-size:12.7708px;}
	.st11{opacity:0.38;}
	.st12{fill:url(#SVGID_6_);}
	.st13{fill:url(#SVGID_7_);}
	.st14{fill:#656995;}
</style>
<g>
	<defs>
		<rect id="SVGID_1_" width="400" height="300"/>
	</defs>
	<clipPath id="SVGID_2_">
		<use xlink:href="#SVGID_1_"  style="overflow:visible;"/>
	</clipPath>
	<g class="st0">
		<linearGradient id="SVGID_3_" gradientUnits="userSpaceOnUse" x1="30" y1="178.5176" x2="370.0001" y2="178.5176">
			<stop  offset="0" style="stop-color:#F5524E"/>
			<stop  offset="1" style="stop-color:#D0342F"/>
		</linearGradient>
		<path class="st1" d="M36.7,165.3l149.1-84.9c7.4-4.2,16.5-4.2,23.9,0.1l153.6,89.5c4.1,2.4,6.6,6.8,6.6,11.5
			c0,4.7-2.6,9.1-6.7,11.5l-143.4,82.4c-9.9,5.7-22.1,5.7-31.9,0l-151.3-87c-4.1-2.4-6.7-6.8-6.7-11.6S32.6,167.7,36.7,165.3z"/>
		<path class="st2" d="M383.6,175.3l-104.7,61c-6.1,3.6-16.2,3.6-22.4,0L80.5,135.6c-6.2-3.6-6.3-9.4-0.2-12.9l104.7-61
			c6.1-3.6,16.2-3.6,22.4,0l175.9,100.7C389.6,166,389.7,171.7,383.6,175.3z"/>
		<path class="st2" d="M388.4,168.8l-104.7,61c-6.1,3.6-16.2,3.6-22.4,0L85.3,129c-6.2-3.6-6.3-9.4-0.2-12.9l104.8-61
			c6.1-3.6,16.2-3.6,22.4,0l175.9,100.7C394.5,159.5,394.5,165.2,388.4,168.8z"/>
		<path class="st2" d="M384.6,171l-104.7,61c-6.1,3.6-16.2,3.6-22.4,0L81.5,131.2c-6.2-3.6-6.3-9.4-0.2-12.9l104.7-61
			c6.1-3.6,16.2-3.6,22.4,0l175.9,100.7C390.7,161.7,390.7,167.5,384.6,171z"/>
		<g class="st3">
			
				<linearGradient id="SVGID_4_" gradientUnits="userSpaceOnUse" x1="9.096906e-02" y1="299.261" x2="1.0466" y2="299.8195" gradientTransform="matrix(312.349 0 0 -179.983 76.796 54049.5898)">
				<stop  offset="0.1591" style="stop-color:#000000"/>
				<stop  offset="0.2754" style="stop-color:#000000"/>
				<stop  offset="1" style="stop-color:#000000"/>
			</linearGradient>
			<path class="st4" d="M384.6,171l-104.7,61c-0.8,0.4-1.6,0.8-2.4,1.2c-6.1,2.4-14.5,2-20-1.1L81.5,131.3
				c-6.2-3.6-6.3-9.3-0.2-12.9l48-27.9l56.7-33c6.1-3.6,16.2-3.6,22.4,0l175.9,100.7C390.7,161.7,390.7,167.5,384.6,171z"/>
		</g>
		<g class="st3">
			
				<linearGradient id="SVGID_5_" gradientUnits="userSpaceOnUse" x1="0.3034" y1="299.2581" x2="0.9268" y2="300.0401" gradientTransform="matrix(233.123 0 0 -133.11 144.213 39995.0898)">
				<stop  offset="0" style="stop-color:#000000"/>
				<stop  offset="0.25" style="stop-color:#282B4E"/>
				<stop  offset="1" style="stop-color:#282B4E"/>
			</linearGradient>
			<path class="st5" d="M178.2,62.1l199.1,112.5L342,195.2L144.2,81.4L178.2,62.1L178.2,62.1z"/>
		</g>
		<g class="st3">
			<path class="st6" d="M325.4,205.2l-48,27.9c-6.1,2.4-14.5,2-20-1.1L81.5,131.3c-6.2-3.6-6.3-9.3-0.2-12.9l48-27.9
				c6.1-2.4,14.5-2,20,1.1l175.9,100.7C331.4,195.9,331.5,201.6,325.4,205.2z"/>
		</g>
		<path class="st7" d="M212.3,103.1l-22.5,13.1c-3.4,2-9,2-12.4,0l-27.6-15.8c-3.5-2-3.5-5.2-0.1-7.2l22.5-13.1c3.4-2,9-2,12.4,0
			l27.6,15.8C215.6,97.9,215.7,101.1,212.3,103.1z"/>
		<path class="st8" d="M197.7,111.4l-3.7,2.1l-11.5-6.6c-1.9,0.7-4.1,1-6.1,0.6l-0.6-0.1l-0.4-0.2c-1-0.5-9.5-5.1-11.5-6.6
			c-2.1-1.5-1-3.7,0-5.1l-9.2-5.2l3.7-2.1l11.9,6.8l-1,1c-1.1,1.1-1.6,2.5-1.3,2.8c1.2,0.9,6.6,3.9,10.2,5.9
			c0.8-0.1,1.5-0.3,2.2-0.8l1.8-1.3L197.7,111.4z"/>
		<path class="st8" d="M204.6,107.4l3.7-2.1l-11.5-6.6c1.6-1.4,1.5-2.8,1-3.5l-0.2-0.3l-0.4-0.2c-0.9-0.6-9-5.4-11.5-6.6
			c-2.6-1.2-6.5-0.5-8.8,0l-9.2-5.2l-3.7,2.1l11.9,6.8l1.7-0.6c1.9-0.6,4.3-1,4.9-0.8c1.5,0.7,6.7,3.7,10.2,5.9
			c-0.1,0.3-0.3,0.7-1.4,1.3l-2.2,1.1L204.6,107.4z"/>
		<path class="st8" d="M201.8,109.2l-0.8,0.5l-40-22.9l0.8-0.5L201.8,109.2L201.8,109.2z"/>
		<path class="st8" d="M189.5,116.3l-0.8,0.4l-40-22.9l0.8-0.5L189.5,116.3L189.5,116.3z"/>
		<path class="st8" d="M214,102.1l-0.8,0.5l-40-22.9l0.8-0.5L214,102.1L214,102.1z"/>
		<text transform="matrix(0.8849 0.5024 -0.8647 0.5024 218.9352 115.1987)" class="st2 st9 st10">CREDIT CARD</text>
		<path class="st2" d="M186.1,167.4l-85.9-49.6c-1.9-1.1-1.7-3,0.5-4.3l0,0c2.2-1.3,5.5-1.4,7.4-0.3l85.9,49.6
			c1.9,1.1,1.7,3-0.5,4.3l0,0C191.4,168.3,188,168.5,186.1,167.4z"/>
		<path class="st2" d="M314.8,171.4l-104.7,61c-6.1,3.6-16.2,3.6-22.4,0L11.8,131.6c-6.2-3.6-6.3-9.4-0.2-12.9l104.7-61
			c6.1-3.6,16.2-3.6,22.4,0l175.9,100.7C320.9,162,320.9,167.8,314.8,171.4z"/>
		<path class="st2" d="M315.8,167.1l-104.7,61c-6.1,3.6-16.2,3.6-22.4,0L12.8,127.3c-6.2-3.6-6.3-9.4-0.2-12.9l104.7-61
			c6.1-3.6,16.2-3.6,22.4,0l175.9,100.7C321.9,157.7,321.9,163.5,315.8,167.1z"/>
		<g class="st11">
			
				<linearGradient id="SVGID_6_" gradientUnits="userSpaceOnUse" x1="1.366628e-02" y1="299.4185" x2="0.9999" y2="299.5838" gradientTransform="matrix(312.343 0 0 -179.983 8.022 54045.6562)">
				<stop  offset="1" style="stop-color:#000000"/>
				<stop  offset="1" style="stop-color:#000000"/>
				<stop  offset="1" style="stop-color:#000000"/>
			</linearGradient>
			<path class="st12" d="M315.8,167.1l-104.7,61c-0.8,0.5-1.6,0.8-2.4,1.2c-6.1,2.4-14.5,2-20-1.1L12.7,127.3
				c-6.2-3.6-6.3-9.4-0.2-12.9l48-27.9l56.8-33c6.1-3.6,16.2-3.6,22.4,0l175.9,100.7C321.9,157.7,321.9,163.5,315.8,167.1z"/>
		</g>
		<g class="st3">
			
				<linearGradient id="SVGID_7_" gradientUnits="userSpaceOnUse" x1="1.561494e-02" y1="299.413" x2="0.9999" y2="299.5898" gradientTransform="matrix(253.145 0 0 -145.788 8.022 43821.3477)">
				<stop  offset="1" style="stop-color:#282B4E;stop-opacity:0.85"/>
				<stop  offset="1" style="stop-color:#000000"/>
				<stop  offset="1" style="stop-color:#000000"/>
			</linearGradient>
			<path class="st13" d="M256.6,201.3l-48,27.9c-6.1,2.4-14.5,2-20-1.1L12.7,127.3c-6.2-3.6-6.3-9.4-0.2-12.9l48-27.9
				c6.1-2.4,14.5-2,20,1.1l175.9,100.7C262.7,191.9,262.7,197.7,256.6,201.3z"/>
		</g>
		<path class="st7" d="M143.5,99.1L121,112.3c-3.4,2-9,2-12.4,0L80.9,96.4c-3.5-2-3.5-5.2-0.1-7.2l22.5-13.1c3.4-2,9-2,12.4,0
			L143.4,92C146.9,93.9,146.9,97.2,143.5,99.1z"/>
		<path class="st8" d="M128.9,107.5l-3.7,2.2l-11.5-6.6c-1.9,0.7-4.1,1-6.1,0.6l-0.6-0.1l-0.4-0.2c-1-0.5-9.5-5.1-11.5-6.6
			c-2.1-1.5-1-3.7,0-5.1L86,86.4l3.7-2.1l11.9,6.8l-1,1c-1.1,1.1-1.6,2.5-1.3,2.8c1.2,0.9,6.6,3.9,10.2,5.9c0.8-0.1,1.5-0.4,2.2-0.8
			l1.8-1.3L128.9,107.5z"/>
		<path class="st8" d="M135.8,103.4l3.7-2.1L128,94.7c1.6-1.4,1.5-2.8,1-3.5l-0.2-0.3l-0.4-0.2c-0.9-0.6-9-5.4-11.5-6.6
			c-2.6-1.2-6.5-0.5-8.8,0l-9.2-5.2L95.2,81l11.9,6.8l1.7-0.6c1.9-0.6,4.3-0.9,4.9-0.8c1.5,0.7,6.7,3.7,10.2,5.9
			c-0.1,0.3-0.3,0.7-1.4,1.3l-2.2,1.1L135.8,103.4z"/>
		<path class="st8" d="M133,105.2l-0.8,0.4l-40-22.9l0.8-0.5L133,105.2L133,105.2z"/>
		<path class="st8" d="M120.8,112.4l-0.8,0.5L80,89.9l0.8-0.5L120.8,112.4L120.8,112.4z"/>
		<path class="st8" d="M145.2,98.1l-0.8,0.5l-40-22.9l0.8-0.5L145.2,98.1L145.2,98.1z"/>
		<text transform="matrix(0.8849 0.5024 -0.8647 0.5024 150.1608 111.2587)" class="st14 st9 st10">CREDIT CARD</text>
		<path class="st2" d="M217.7,205.5L45.2,105.9c-1.9-1.1-1.7-3,0.5-4.3l0,0c2.2-1.3,5.5-1.4,7.4-0.3l172.5,99.6
			c1.9,1.1,1.7,3-0.5,4.3l0,0C222.9,206.5,219.6,206.6,217.7,205.5z"/>
		<path class="st2" d="M117.4,163.4l-85.9-49.6c-1.9-1.1-1.7-3,0.5-4.3l0,0c2.2-1.3,5.5-1.4,7.4-0.3l85.9,49.6
			c1.9,1.1,1.7,3-0.5,4.3l0,0C122.6,164.4,119.3,164.5,117.4,163.4z"/>
		<path class="st2" d="M204.8,213.9L142.6,178c-1.9-1.1-1.7-3,0.5-4.3l0,0c2.2-1.3,5.5-1.4,7.4-0.3l62.2,35.9c1.9,1.1,1.7,3-0.5,4.3
			l0,0C210,214.9,206.7,215,204.8,213.9z"/>
	</g>
</g>
</svg>
